assets/img/braze_icons/server-06.svg

<svg fill="none" height="24" viewBox="0 0 24 24" width="24" xmlns="http://www.w3.org/2000/svg"><path clip-rule="evenodd" d="m4 1c-1.65685 0-3 1.34315-3 3s1.34315 3 3 3c.18765 0 .37128-.01723.54939-.05019-.97795 1.43997-1.54939 3.17839-1.54939 5.05019s.57144 3.6102 1.54939 5.0502c-.17811-.033-.36174-.0502-.54939-.0502-1.65685 0-3 1.3431-3 3s1.34315 3 3 3 3-1.3431 3-3c0-.1877-.01723-.3713-.05019-.5494 1.43997.978 3.17839 1.5494 5.05019 1.5494s3.6102-.5714 5.0502-1.5494c-.033.1781-.0502.3617-.0502.5494 0 1.6569 1.3431 3 3 3s3-1.3431 3-3-1.3431-3-3-3c-.1877 0-.3713.0172-.5494.0502.978-1.44 1.5494-3.1784 1.5494-5.0502s-.5714-3.61022-1.5494-5.05019c.1781.03296.3617.05019.5494.05019 1.6569 0 3-1.34315 3-3s-1.3431-3-3-3-3 1.34315-3 3c0 .18765.0172.37128.0502.54939-1.44-.97795-3.1784-1.54939-5.0502-1.54939s-3.61022.57144-5.05019 1.54939c.03296-.17811.05019-.36174.05019-.54939 0-1.65685-1.34315-3-3-3zm1.07089 10c.37558-2.6257 2.20828-4.78134 4.6527-5.62153-1.035 1.70301-1.67602 3.6243-1.86612 5.62153zm4.65277 7.6216c-2.44446-.8402-4.27719-2.9959-4.65277-5.6216h2.78658c.19012 1.9972.83116 3.9185 1.86619 5.6216zm9.20544-5.6216c-.3755 2.6252-2.2076 4.7806-4.6514 5.6211 1.0349-1.7029 1.6758-3.624 1.8659-5.6211zm-4.6513-7.62106c2.4437.84051 4.2758 2.99585 4.6513 5.62106h-2.7855c-.1901-1.99705-.831-3.91817-1.8658-5.62106zm-.1449 5.62106c-.2208-1.96607-.9569-3.83884-2.1324-5.42825-1.1754 1.58941-1.9115 3.46218-2.13237 5.42825zm-4.26476 2c.22086 1.966.95696 3.8388 2.13236 5.4282 1.1754-1.5894 1.9116-3.4622 2.1324-5.4282z" fill="#801ed7" fill-rule="evenodd"/></svg>

<svg width="24" height="24" viewBox="0 0 24 24" fill="none" xmlns="http://www.w3.org/2000/svg">
<path fill-rule="evenodd" clip-rule="evenodd" d="M4 1C2.34315 1 1 2.34315 1 4C1 5.65685 2.34315 7 4 7C4.18765 7 4.37128 6.98277 4.54939 6.94981C3.57144 8.38978 3 10.1282 3 12C3 13.8718 3.57144 15.6102 4.54939 17.0502C4.37128 17.0172 4.18765 17 4 17C2.34315 17 1 18.3431 1 20C1 21.6569 2.34315 23 4 23C5.65685 23 7 21.6569 7 20C7 19.8123 6.98277 19.6287 6.94981 19.4506C8.38978 20.4286 10.1282 21 12 21C13.8718 21 15.6102 20.4286 17.0502 19.4506C17.0172 19.6287 17 19.8123 17 20C17 21.6569 18.3431 23 20 23C21.6569 23 23 21.6569 23 20C23 18.3431 21.6569 17 20 17C19.8123 17 19.6287 17.0172 19.4506 17.0502C20.4286 15.6102 21 13.8718 21 12C21 10.1282 20.4286 8.38978 19.4506 6.94981C19.6287 6.98277 19.8123 7 20 7C21.6569 7 23 5.65685 23 4C23 2.34315 21.6569 1 20 1C18.3431 1 17 2.34315 17 4C17 4.18765 17.0172 4.37128 17.0502 4.54939C15.6102 3.57144 13.8718 3 12 3C10.1282 3 8.38978 3.57144 6.94981 4.54939C6.98277 4.37128 7 4.18765 7 4C7 2.34315 5.65685 1 4 1ZM5.07089 11C5.44647 8.3743 7.27917 6.21866 9.72359 5.37847C8.68859 7.08148 8.04757 9.00277 7.85747 11H5.07089ZM9.72366 18.6216C7.2792 17.7814 5.44647 15.6257 5.07089 13H7.85747C8.04759 14.9972 8.68863 16.9185 9.72366 18.6216ZM18.9291 13C18.5536 15.6252 16.7215 17.7806 14.2777 18.6211C15.3126 16.9182 15.9535 14.9971 16.1436 13H18.9291ZM14.2778 5.37894C16.7215 6.21945 18.5536 8.37479 18.9291 11H16.1436C15.9535 9.00295 15.3126 7.08183 14.2778 5.37894ZM14.1329 11C13.9121 9.03393 13.176 7.16116 12.0005 5.57175C10.8251 7.16116 10.089 9.03393 9.86813 11H14.1329ZM9.86814 13C10.089 14.966 10.8251 16.8388 12.0005 18.4282C13.1759 16.8388 13.9121 14.966 14.1329 13H9.86814Z" fill="#801ED7"/>
</svg>
